media/icon-file-type/svgs/figma/24.svg

<svg width="24" height="24" viewBox="0 0 24 24"><path fill-rule="evenodd" clip-rule="evenodd" d="M3.24812 0C1.45423 0 0 1.45423 0 3.24812V20.7519C0 22.5458 1.45423 24 3.24812 24H20.7519C22.5458 24 24 22.5458 24 20.7519V3.24812C24 1.45423 22.5458 0 20.7519 0H3.24812ZM12.0025 17.0125C12.0025 18.396 10.8805 19.5188 9.498 19.5188C8.11551 19.5188 6.99348 18.396 6.99348 17.0125C6.99348 15.6291 8.11551 14.5063 9.498 14.5063C8.11551 14.5063 6.99348 13.3835 6.99348 12C6.99348 10.6165 8.11551 9.49374 9.498 9.49374C8.11551 9.49374 6.9935 8.37093 6.9935 6.98747C6.9935 5.60401 8.11552 4.4812 9.49802 4.4812C10.8805 4.4812 14.507 4.4812 14.507 4.4812C15.8895 4.4812 17.0116 5.60401 17.0116 6.98747C17.0116 8.37093 15.8895 9.49373 14.507 9.49373H12.0025L12.0025 11.9941C12.0057 10.6133 13.1265 9.49373 14.507 9.49373C15.8895 9.49374 17.0116 10.6165 17.0116 12C17.0116 13.3835 15.8895 14.5063 14.507 14.5063C13.1265 14.5063 12.0057 13.3867 12.0025 12.0059L12.0025 14.5092L12.0025 17.0125Z" fill="#8270DB"/></svg>

<svg width="24" height="24" viewBox="0 0 24 24"><path fill-rule="evenodd" clip-rule="evenodd" d="M3.248 0A3.248 3.248 0 000 3.248v17.504A3.248 3.248 0 003.248 24h17.504A3.248 3.248 0 0024 20.752V3.248A3.248 3.248 0 0020.752 0H3.248zm8.755 17.012a2.506 2.506 0 01-2.505 2.507 2.506 2.506 0 010-5.013 2.506 2.506 0 010-5.012 2.506 2.506 0 010-5.013h5.009a2.506 2.506 0 010 5.013h-2.505v2.5a2.506 2.506 0 012.505-2.5 2.506 2.506 0 010 5.012 2.506 2.506 0 01-2.505-2.5v5.006z" fill="#5243AA"/></svg>
